X:1018
T:Vals e Ola Lans
T:(SvL Skåne nr. 1018)
C:Ola Nilsson Lans
S:Omtyckta Skånska Allspelslåtar
B:Svenska Låtar Skåne
R:Vals
Z:Patrik Månsson, 2008-11-24
O:Sjörup, Skåne
M:3/4
L:1/8
K:Am
|: e3 d ^cB | A>A A2 A2 | =c(c B)(B E)E | B{cB}A A2 A2 | e3 d ^cB | A>A A2 A2 |=c(c B)(B E)E | A2 A2 z2 :|
|: (e2 ^c2) c2 | (^c2e2) g2 | {a}((3g^fe f2) d2 | (d2^f2) a2 | a3 g e2 | ^c2 e2 g2 |{a}((3g^fe f2) d2 | e2 e2 z2 :|

